X: 37156
T: Siobhan O'Donnell's
R: reel
M: 4/4
K: Amajor
|:"A"ABce a2ae|"D"f/f/f af fece|f/f/f fe cBAF|"A"EFAB "E"cBAF|
"A"E3F ABce|"D"f/f/f af fece|f/f/f ec dBcA|"E"BcAB "A"cAAB:|
|:"A"ABce fece|"D"fA A/A/A fAeA|fA A/A/A fAeA|aAfA "A"eAce|
"D"f3e cBAF|"A"E3F ABce|"D"f/f/f ec dBcA|"E"BcAB "A"cA A2:|

